!! 00000] TT[00
!! NN
!!!OTL: Ha yao gua  ---- Shuang hao
!!!ARE: Asia, China,ÿHeilongjiang, Yichun
!! Ethnic Group: Han
!! III, 77
!!!SCT: C0281
!!!YEM: Copyright 1995, estate of Helmut Schaffrath.
**kern
*ICvox
*Ivox
!! Mixed meters:  2/4; 2/8
*M2/8
*k[f#c#]
*D:
{16.dd
32dd
16dd
16dd
8b
8a
=1
8a
8dd
=2
*M2/4
4b
4dd
=3
*M2/8
8a
8a}
=4
*M2/4
{8b
16f#
16a
16b
16a
8b
=5
*M2/8
4a}
=6
*M2/4
{8b
16a
16b
8dd
16a
16b
=7
*M2/8
8a
8a}
=8
*M2/4
{8b
8ee
4b
=9
*M2/8
4a}
=10
*M2/4
{4dd
4a
=11
*M2/8
4a}
=12
*M2/4
{8b
16g#
16a
8dd
16b
16r
=13
*M2/8
4a}
=14
*M2/4
{8ee
8cc#
4b
=15
*M2/8
4a}
=16
*M2/4
{4b
8a
16f#
16f#
=17
*M2/8
4a}
=18
*M2/4
{8e
16a
16a
16b
16a
8b
=19
*M2/8
4a}
=20
*M2/4
{16.b
32b
16a
16b
8dd
16a
16b
=21
*M2/8
4a}
=22
*M2/4
{8ee
8cc#
4b
=23
*M2/8
4a}
=24
*M2/4
{4b
8a
16b
16r
=25
*M2/8
4a}
=26
*M2/4
{8e
16a
16a
8b
16a
16b
=27
*M2/8
4a}
=28
*M2/4
{8r
8cc#
4b
=29
*M2/8
4a}
=30
*M2/4
{4dd
8a
16f#
16f#
=31
*M2/8
4a}
=32
*M2/4
{8b
16a
16a
16f#
16a
8b
=33
*M2/8
4a}
=34
*M2/4
{8b
16a
16b
8dd
16a
16b
=35
*M2/8
4a}
=36
*M2/4
{4ee
4b
=37
*M2/8
4a}
=38
*M2/4
{16b
16a
8b
4a
=39
*M2/8
4a}
=40
*M2/4
{8dd
16f#
16a
8dd
16a
16b
=41
*M2/8
4ee
=42
*M2/4
4b
4dd
=43
*M2/8
4a}
=44
*M2/4
{8r
8cc#
4b
=45
*M2/8
4a}
=46
*M2/4
{4b
8a
16f#
16f#
=47
*M2/8
4a}
=48
*M2/4
{8a
16f#
16a
16b
16a
8b
=49
*M2/8
4a}
=50
*M2/4
{8b
8ee
4b
=51
*M2/8
4a}
=52
*M2/4
{16b
16r
16b
16r
4a
=53
*M2/8
4a}
=54
*M2/4
{8f#
16cc#
16cc#
8b
16a
16a
=55
*M2/8
4a}
=56
*M2/4
{8dd
8dd
8b
16a
16f#
=57
4a}
==
!!!AGN: Haozi, Taimu Haozi. Tongyi bufa, Tiaojie jingli
!! Wird beim Holztragen gesungen. Eine Periode hat 2 Saetze, der
!!    Rhythmus "3+2" ist mit dem Schritt verbunden: Beim Akzent wird
!!    der Fuss gewechselt. Dazwischen 1 Schlag Pause. Der Vorsaenger
!!    kann Text oder Melodie frei veraendern.
!!    Zweistimmig, aber keine echte Zweistimmigkeit.! Da aber die Oberstimme jeden
!!    2. Takt pausiert, ist  an diesen Stellen die Unterstimme kodiert. Daher sind
!!    beide Stimmen notiert: jeder 2. T. wird von der zweiten Stimme gesungen,
!!    also meist 5__ , waehrend die andere pausiert. In den T.15/25/51 ist die
!!    uebergebundene 5, Wert 16) weggelassen, weil ansonsten nur die Oberstimme
!!    kodiert ist. Zahlreiche Verzierungen. Grundton nicht angegeben., 04=68-78)
!!    Fehlen Oktavierungspunkte, z.B. Phr.11)? Viele Verzierungen, Glissandi.
!!    Doppelt in C1265.
!!!ONB: ESAC (Essen Associative Code) Database: CHINA
!!!AMT: irregular
!!!AIN: vox
!!!EED: Helmut Schaffrath
!!!EEV: 1.0
*-
